X: 0714
T: CHING A RING CHAW
B: Oliver Ditson "The Boston Collection of Instrumental Music" 1910 p.71 #4
F: http://conquest.imslp.info/files/imglnks/usimg/8/8f/IMSLP175643-PMLP309456-bostoncollection00bost_bw.pdf
M: 4/4
L: 1/8
K: G
[|\
dd BG d2 z2 | ec cd eg z2 |\
dd BG d2 z2 | AB cd BG z2 |
dd ge d2 z2 | dd ge ed z2 |\
dB ge d2 z2 | ec cd eg z2 |
d/d/d/d/ BG d2 z2 | e/e/e/e/ cd eg z2 |\
d/d/d/d/ BG d2 z2 | AB cd BG z2 |]

%%sep 1 1 500
%%sep 1 1 500
